X: 579
T: Kol Erkers polska efter Frost Anders
S: efter Frost Anders
R: Polska
S: Känd genom BOOT
D: BOOT, Virvla
Z: Håkan Lidén, 2008-09-28
N: Nedanstående i 3/4
Q: 3/8=128
M: 3/4
L: 1/8
K: Am
E>D E<^F G>E | (3:2:4AG A2 B2 A>G | E>D E<^F G>E | (3:2:4AG E2 D2 B,2- |
B,>D E<^F G>E | (3:2:4AG A2 B2 A>G | E>D E<^F G>E | G/^F/E/D/ E4 :|[K:A]
|:e>c A<c e>d| (3:2:4BG A2 B2 cB/c/| d=g e/f/e/d/ cB | e>c A<G E2- |
E>G A/B/c/d/ e>d | (3:2:4BG A2 B2 cB/c/| d=g e/f/e/d/ cB | ec A4 :|]
(:musicend:)

(:music:)
